X:1968
T:Fiou de Lono (version Pauvert)
O:england
M:3/8
L:1/8
K:C
f2f|e2d|def|g2a/g/|\
f2f|e2d|def|g3:|
|:f2f|e2d|d/e/cB|A/B/de|\
f2f|e2d|d/e/cB|c3:|


